!!!OTL: IM HIMMEL IM HIMMEL SIND FREUDEN
!!!ARE: Europa, Mitteleuropa, Deutschland, Brandenburg, Oranienburg
!!!SCT: E2034A
!!!YEM: Copyright 1995, estate of Helmut Schaffrath.
**kern
*ICvox
*Ivox
*M3/4
*k[b-]
*F:
{4c
=1
4f
4e
4f
=2
4g
4f
4a
=3
4b-
4b-
4a
=4
2g}
{8f
8a
=5
4cc
4cc
4dd
=6
4cc
4cc
4b-
=7
4a
4a
4g
=8
2f}
{8f
8a
=9
4cc
4cc
4dd
=10
4cc
4cc
4b-
=11
4a
4a
4g
=12
2f}
==
!!!AGN: geistlich, Wallfahrts - Lied
!!!ONB: ESAC (Essen Associative Code) Database: ERK3
!!!AMT: simple triple
!!!AIN: vox
!!!EED: Helmut Schaffrath
!!!EEV: 1.0
*-
